lib/brands/logos/brandfolder.svg

<svg xmlns="http://www.w3.org/2000/svg" fill="none" aria-hidden="true" viewBox="0 0 212 56"><g id="Brandfolder"><g id="Group"><path id="Vector" fill="#343333" d="M170.37 15.1047V41.7013C169.231 42.0342 168.072 42.2928 166.899 42.4756C165.441 42.6763 163.97 42.767 162.498 42.747C161.218 42.7513 159.944 42.5692 158.716 42.2064C157.555 41.8657 156.478 41.2859 155.555 40.5043C154.644 39.7113 153.923 38.7238 153.446 37.6154L153.394 37.4918C152.865 36.2636 152.598 34.7396 152.598 32.9641C152.589 31.6043 152.821 30.2538 153.283 28.9748C153.712 27.7725 154.38 26.6692 155.245 25.7309C156.123 24.804 157.182 24.0672 158.356 23.566C159.585 23.0429 160.907 22.772 162.242 22.7687L162.396 22.7695C162.841 22.7695 163.315 22.7873 163.793 22.8251C164.261 22.8612 164.725 22.9417 165.177 23.0654L165.351 23.1144V15.1047H170.37ZM135.063 23.4348C136.176 23.9136 137.165 24.6395 137.955 25.5573C138.744 26.4928 139.327 27.5836 139.666 28.759C140.029 29.9897 140.217 31.2647 140.227 32.547L140.227 32.7394C140.238 34.0734 140.049 35.4015 139.666 36.6797C139.324 37.8409 138.745 38.9188 137.967 39.8457C137.18 40.7586 136.194 41.4787 135.085 41.9505C133.787 42.4825 132.392 42.7408 130.989 42.7092C129.598 42.7387 128.216 42.4804 126.929 41.9505C125.834 41.4768 124.863 40.7565 124.092 39.8457C123.322 38.9126 122.743 37.8367 122.39 36.6797C122.015 35.4615 121.821 34.1953 121.813 32.9214L121.814 32.7394C121.804 31.3919 121.999 30.0507 122.39 28.7612C122.737 27.5902 123.316 26.5008 124.092 25.5573C124.867 24.642 125.841 23.916 126.94 23.4348C128.219 22.8917 129.6 22.6262 130.989 22.656C132.387 22.6262 133.775 22.8916 135.063 23.4348ZM106.9 15.0668V41.6524C105.761 41.9876 104.601 42.2462 103.427 42.4267C102.07 42.6172 100.701 42.7122 99.3308 42.711L99.0372 42.7092C97.7566 42.7144 96.4822 42.5315 95.2548 42.1663C94.0925 41.8282 93.0145 41.249 92.0909 40.4665C91.1813 39.6727 90.4618 38.6854 89.9848 37.5775L89.9328 37.454C89.401 36.2147 89.134 34.6906 89.134 32.9263C89.1303 31.5654 89.3653 30.2144 89.8282 28.9348C90.2609 27.7347 90.928 26.6328 91.7906 25.693C92.6618 24.7676 93.7136 24.0308 94.881 23.5282C96.1105 23.0047 97.4321 22.7337 98.7673 22.7308L98.9214 22.7317C99.3353 22.7317 99.7936 22.7495 100.319 22.7873C100.786 22.8241 101.25 22.9046 101.703 23.0276L101.876 23.0765V15.0668H106.9ZM182.007 22.656C183.23 22.6331 184.444 22.8729 185.566 23.3591C186.573 23.8053 187.473 24.4597 188.207 25.2792C188.95 26.1193 189.511 27.1041 189.854 28.1716C190.225 29.345 190.408 30.5698 190.395 31.8004C190.395 32.2721 190.374 32.7416 190.337 33.1977L190.309 33.5096C190.283 33.7934 190.258 33.9987 190.228 34.1789H177.712V34.3257C177.817 35.8676 178.369 36.9956 179.35 37.6965C180.331 38.3973 181.608 38.7355 183.188 38.7355C184.078 38.772 184.968 38.6882 185.836 38.4863L188.234 37.8188L189.222 41.6212C187.224 42.3425 185.116 42.7109 182.993 42.7104L182.788 42.7092C181.008 42.7092 179.466 42.4578 178.198 41.9661C175.836 41.1229 174.022 39.1983 173.32 36.7909C172.546 34.1952 172.552 31.4291 173.338 28.8369C173.705 27.6563 174.302 26.5604 175.096 25.6129C175.891 24.6902 176.878 23.9522 177.988 23.4503C179.255 22.8986 180.626 22.6276 182.007 22.656ZM58.5517 22.162H58.7506C61.8232 22.162 64.433 22.9408 65.7346 24.2402C66.9249 25.4327 67.4544 27.335 67.4544 30.4099V41.579L67.1792 41.6616C66.3823 41.8947 65.4399 42.1204 64.3729 42.3354C63.0677 42.5801 61.7431 42.7054 60.4156 42.7099L60.15 42.7092C58.9836 42.717 57.8196 42.6029 56.6769 42.3688C55.7134 42.1821 54.7971 41.8038 53.9825 41.2563C53.2486 40.757 52.6561 40.0764 52.2627 39.2806C51.8324 38.3472 51.6245 37.3266 51.6553 36.2992C51.62 35.2643 51.8809 34.2408 52.4073 33.349C52.8938 32.5667 53.5596 31.9116 54.3497 31.4378C55.1818 30.9476 56.0892 30.598 57.0351 30.4032C58.0128 30.193 59.0099 30.0863 60.0099 30.085C60.7285 30.085 61.5339 30.1229 62.4039 30.1985H62.5529V29.62C62.5529 27.5931 60.9666 26.4762 58.0853 26.4762C56.4418 26.48 54.8153 26.809 53.2995 27.4441V23.0743C54.9877 22.4799 56.7629 22.1717 58.5517 22.162ZM25.4374 15.0668L25.6171 15.0665C26.9187 15.0614 28.2182 15.1738 29.4995 15.4028C30.613 15.5911 31.6847 15.9737 32.6656 16.5331C33.541 17.0414 34.2687 17.7691 34.7771 18.6445C35.2888 19.5189 35.5491 20.6314 35.5491 21.9552C35.5554 22.7 35.4373 23.4407 35.1998 24.1467C34.9864 24.7818 34.6707 25.3777 34.2653 25.9111C33.8888 26.3942 33.4383 26.8147 32.9304 27.157C32.4882 27.4667 31.9816 27.6721 31.4486 27.7578V28.0292C32.0944 28.1254 32.7263 28.2987 33.3309 28.5454C34.034 28.8289 34.6818 29.2341 35.2443 29.7424C35.8662 30.3166 36.3657 31.0106 36.7127 31.7826C37.1159 32.6918 37.3232 33.675 37.3217 34.6686L37.3201 34.8041C37.3201 36.3994 37.0175 37.7232 36.4302 38.7355C35.8388 39.7393 34.9951 40.5707 33.9828 41.1473C32.8794 41.766 31.6735 42.1806 30.4229 42.371C29.0076 42.6006 27.5759 42.7137 26.1421 42.7095C25.0297 42.7095 23.8727 42.6758 22.7313 42.6135C21.6567 42.5557 20.4441 42.4422 19.0291 42.2709V15.4629C19.7584 15.3534 20.5798 15.2554 21.4736 15.1921L21.9274 15.1618C22.8901 15.1016 24.0684 15.0694 25.4374 15.0668ZM147.618 15.0668V34.6572C147.608 35.2932 147.652 35.9288 147.749 36.5573C147.813 36.9725 147.965 37.3692 148.194 37.721C148.391 38.0014 148.673 38.2106 148.998 38.3172C149.376 38.4311 149.771 38.4844 150.166 38.4752C150.369 38.4791 150.572 38.4695 150.773 38.4463C151.292 39.492 152.137 40.5132 153.559 41.8059L151.973 42.1188C151.241 42.2612 150.569 42.388 150.413 42.4053L150.399 42.4066C149.81 42.4578 149.305 42.4823 148.844 42.4823C146.962 42.4823 145.431 41.9572 144.296 40.9248C143.162 39.8925 142.594 38.1748 142.594 35.8209V15.0668H147.618ZM202.614 22.8852H202.892C203.08 22.8826 203.268 22.8953 203.455 22.923L204.049 23.0165L203.944 27.4352C203.683 27.3989 203.42 27.3817 203.157 27.384H202.543C202.055 27.3881 201.569 27.4328 201.09 27.5175C200.518 27.6221 199.982 27.8702 199.532 28.2384C198.981 28.7071 198.559 29.3081 198.304 29.9849C197.984 30.757 197.821 31.836 197.821 33.1932V42.2976L192.76 42.2932V23.1077L197.815 23.1455V25.693L198.064 25.3393C198.562 24.634 198.847 24.4182 199.53 23.8953L199.69 23.7752C200.538 23.1607 201.567 22.8475 202.614 22.8852ZM49.5349 22.8785H49.8153C50.0036 22.8759 50.1919 22.8886 50.3782 22.9163L50.9745 23.0098L50.8677 27.4285C50.6067 27.3921 50.3435 27.375 50.08 27.3773H49.4615C48.9751 27.3815 48.4899 27.4261 48.0109 27.5108C47.4388 27.6144 46.9026 27.8626 46.4534 28.2317C45.9027 28.6999 45.4807 29.3011 45.2275 29.9782C44.9071 30.7481 44.7447 31.8294 44.7447 33.1866V42.2909L39.6785 42.2932V23.1077L44.7603 23.1455L44.7402 25.6819L44.9939 25.3259C45.4184 24.727 45.6848 24.4833 46.1711 24.1079L46.6158 23.7685C47.4623 23.1544 48.4899 22.8411 49.5349 22.8785ZM121.104 14.7175L122.644 15.0446L121.905 18.9871L121.18 18.8425C120.774 18.7706 120.361 18.7386 119.949 18.7468C119.157 18.7142 118.375 18.9416 117.724 19.3943C117.099 19.8638 116.768 20.8182 116.768 22.1532V23.1166H123.097C122.517 23.5182 121.993 23.9956 121.54 24.5361C120.952 25.2488 120.475 26.0462 120.125 26.9012H116.768V42.2642L111.746 42.2553V26.8923H108.664V23.1099H111.746V22.0308C111.729 20.9522 111.91 19.8797 112.282 18.867C112.61 17.9927 113.132 17.2039 113.808 16.5598C114.492 15.9212 115.3 15.4311 116.182 15.1202C117.112 14.7992 118.088 14.6317 119.071 14.6239L119.667 14.6241C120.148 14.6079 120.629 14.6392 121.104 14.7175ZM80.6927 22.656C82.8442 22.656 84.4862 23.2479 85.5697 24.4159C86.6533 25.584 87.2073 27.4641 87.2073 29.9938V42.2553H82.1456V31.4244C82.1456 30.0561 81.9231 28.977 81.507 28.2361C81.091 27.4952 80.2989 27.0769 79.2265 27.0769C78.7704 27.0807 78.3169 27.1458 77.8782 27.2705C77.391 27.4108 76.9486 27.6753 76.5944 28.0381C76.1744 28.4873 75.8617 29.0259 75.6799 29.6134C75.4237 30.4549 75.3064 31.3327 75.3329 32.2121V42.2553H70.2734V23.1077H75.3217V25.6241L75.5732 25.2481C75.6362 25.1399 75.7117 25.0397 75.7981 24.9495L75.926 24.8212C75.9698 24.7766 76.0248 24.7194 76.0982 24.6407C76.4543 24.263 76.8547 23.9298 77.2908 23.6483C77.7682 23.3449 78.2827 23.1041 78.8215 22.9319C79.4269 22.7421 80.0583 22.649 80.6927 22.656ZM130.989 26.5519C129.567 26.5519 128.522 27.0992 127.874 28.1783C127.227 29.2574 126.935 30.7681 126.935 32.7394C126.935 34.7106 127.251 36.2436 127.874 37.2982C128.497 38.3528 129.559 38.9246 130.989 38.9246C132.42 38.9246 133.494 38.3773 134.131 37.2982C134.767 36.2191 135.072 34.7062 135.072 32.7394C135.072 30.7725 134.772 29.2418 134.14 28.1783C133.508 27.1148 132.447 26.5519 130.989 26.5519ZM60.4882 33.1643C59.2378 33.1643 58.2344 33.3868 57.5046 33.8318C56.7748 34.2768 56.3677 35.051 56.3677 36.0745C56.3677 36.7553 56.5167 37.2893 56.8126 37.6609C57.0859 38.0185 57.4479 38.2985 57.8628 38.473C58.233 38.628 58.6236 38.7284 59.0223 38.7711L59.1421 38.7822C59.5871 38.8223 59.972 38.8401 60.2991 38.8401C60.6845 38.8396 61.0692 38.8076 61.4494 38.7444L61.8085 38.6838C62.0368 38.6445 62.2429 38.608 62.4283 38.5753L62.5418 38.5531V33.3735L62.4261 33.3557C62.128 33.3045 61.7965 33.26 61.4427 33.2222C61.1258 33.1863 60.8072 33.167 60.4882 33.1643ZM160.581 27.1125C159.963 27.4545 159.431 27.9313 159.023 28.5076C158.596 29.1239 158.289 29.8153 158.118 30.5456C157.939 31.2808 157.843 32.0334 157.832 32.7895L157.831 32.9641C157.811 33.8648 157.941 34.7626 158.216 35.6206C158.431 36.2832 158.796 36.8871 159.283 37.385C159.739 37.8246 160.292 38.1508 160.897 38.3373C161.546 38.5319 162.221 38.6279 162.899 38.622C163.319 38.622 163.716 38.6042 164.076 38.5686C164.425 38.5257 164.77 38.4565 165.108 38.3617L165.353 38.2905V26.9212L165.248 26.8967C164.842 26.7883 164.429 26.7051 164.011 26.6475C163.611 26.6052 163.208 26.5859 162.806 26.5897C162.032 26.573 161.266 26.7529 160.581 27.1125ZM97.1104 27.0769C96.4878 27.4151 95.9512 27.8916 95.5418 28.4697C95.114 29.0855 94.8074 29.7772 94.6385 30.5078C94.4474 31.2997 94.3517 32.1116 94.3537 32.9263C94.3338 33.8261 94.4631 34.723 94.7364 35.5806C94.9496 36.2447 95.3154 36.8497 95.8043 37.3472C96.2584 37.7887 96.8115 38.1152 97.4174 38.2994C98.0667 38.4951 98.7417 38.5918 99.4198 38.5864C99.8426 38.5864 100.239 38.5664 100.599 38.5308C100.952 38.49 101.301 38.421 101.643 38.3246L101.887 38.2527V26.8856L101.785 26.8589C101.377 26.75 100.964 26.6668 100.546 26.6097C100.144 26.5666 99.7395 26.5473 99.3353 26.5519C98.561 26.5344 97.7951 26.7151 97.1104 27.0769ZM26.7882 30.3118L24.1931 30.312V38.3818L24.311 38.3996C24.667 38.4485 25.0831 38.4863 25.5436 38.513C26.0042 38.5397 26.4091 38.5486 26.8118 38.5486C27.3736 38.5462 27.9341 38.4955 28.4872 38.3973C29.0713 38.2954 29.633 38.0921 30.147 37.7966C30.6724 37.4936 31.1148 37.0656 31.4352 36.5506C31.7991 35.9188 31.9758 35.1966 31.9447 34.4681C31.9675 33.7801 31.8352 33.0957 31.5576 32.4657C31.3079 31.9432 30.924 31.4964 30.4451 31.1708C29.9275 30.8363 29.3479 30.6093 28.7409 30.5033C28.0969 30.3811 27.4434 30.317 26.7882 30.3118ZM181.924 26.4384C180.636 26.4384 179.641 26.8077 178.97 27.5353C178.298 28.2628 177.895 29.2796 177.766 30.5834L177.753 30.7347H185.635V30.5923C185.584 29.3664 185.239 28.3674 184.608 27.5976C183.976 26.8278 183.066 26.4384 181.924 26.4384ZM24.3244 18.9649L24.2087 18.9827V26.4495H25.9953C26.5928 26.454 27.1892 26.3974 27.7752 26.2804C28.3003 26.177 28.7977 25.964 29.2348 25.6552C29.6636 25.3412 30.0033 24.921 30.2204 24.436C30.4735 23.8292 30.5933 23.1752 30.572 22.5181C30.595 21.8758 30.4525 21.2383 30.1581 20.667C29.9013 20.2044 29.5335 19.813 29.0879 19.5278C28.649 19.2528 28.1596 19.0683 27.6484 18.9849C27.1385 18.8964 26.6219 18.8517 26.1043 18.8514C25.509 18.8443 24.914 18.8822 24.3244 18.9649Z"/><path id="Vector_2" fill="#39C5EB" d="M13.0107 10.2722H40.0434V12.5149V12.5705V14.831H37.2867L42.5776 20.1219L47.864 14.831H45.1029V12.5705V12.5149V5.21271H7.9512V51.2997H45.1029V46.2402H13.0107V10.2722Z"/></g></g></svg>

<svg xmlns="http://www.w3.org/2000/svg" fill="none" aria-hidden="true" viewBox="0 0 212 56"><path fill="#343333" d="M170.37 15.105V41.7a27.422 27.422 0 0 1-3.471.775 29.44 29.44 0 0 1-4.401.271 13.192 13.192 0 0 1-3.782-.54 8.669 8.669 0 0 1-3.161-1.703 8.05 8.05 0 0 1-2.109-2.889l-.052-.123c-.529-1.228-.796-2.752-.796-4.528-.009-1.36.223-2.71.685-3.99a9.495 9.495 0 0 1 1.962-3.243 9.332 9.332 0 0 1 3.111-2.165 9.987 9.987 0 0 1 3.886-.797h.154c.445 0 .919.018 1.397.056.468.036.932.117 1.384.24l.174.05v-8.01h5.019Zm-35.307 8.33a7.973 7.973 0 0 1 2.892 2.122 8.71 8.71 0 0 1 1.711 3.202c.363 1.23.551 2.506.561 3.788v.192a13.344 13.344 0 0 1-.561 3.94 8.787 8.787 0 0 1-1.699 3.167 7.876 7.876 0 0 1-2.882 2.105 10.19 10.19 0 0 1-4.096.758 10.1 10.1 0 0 1-4.06-.759 7.747 7.747 0 0 1-2.837-2.104 9.188 9.188 0 0 1-1.702-3.166 13.052 13.052 0 0 1-.577-3.759l.001-.182c-.01-1.347.185-2.688.576-3.978a9.126 9.126 0 0 1 1.702-3.204 7.865 7.865 0 0 1 2.848-2.122 9.824 9.824 0 0 1 4.049-.779 9.938 9.938 0 0 1 4.074.779ZM106.9 15.067v26.585a26.639 26.639 0 0 1-3.473.775c-1.357.19-2.726.285-4.096.284l-.294-.002a13.077 13.077 0 0 1-3.782-.543 8.618 8.618 0 0 1-3.164-1.7 8.07 8.07 0 0 1-2.106-2.889l-.052-.123c-.532-1.24-.799-2.763-.799-4.528a11.64 11.64 0 0 1 .694-3.991 9.619 9.619 0 0 1 1.963-3.242 9.29 9.29 0 0 1 3.09-2.165 9.976 9.976 0 0 1 3.886-.797h.154c.414 0 .873.018 1.398.056.467.037.931.118 1.384.24l.173.05v-8.01h5.024Zm75.107 7.589a8.55 8.55 0 0 1 3.559.703 7.771 7.771 0 0 1 2.641 1.92 8.112 8.112 0 0 1 1.647 2.893 11.63 11.63 0 0 1 .541 3.628c0 .472-.021.942-.058 1.398l-.028.312a9.142 9.142 0 0 1-.081.669h-12.516v.147c.105 1.542.657 2.67 1.638 3.37.981.701 2.258 1.04 3.838 1.04a9.91 9.91 0 0 0 2.648-.25l2.398-.667.988 3.802a18.333 18.333 0 0 1-6.229 1.09l-.205-.002c-1.78 0-3.322-.251-4.59-.743a7.82 7.82 0 0 1-4.878-5.175 13.81 13.81 0 0 1 .018-7.954 9.33 9.33 0 0 1 1.758-3.224 8.368 8.368 0 0 1 2.892-2.163 9.574 9.574 0 0 1 4.019-.794Zm-123.455-.494h.199c3.072 0 5.682.779 6.984 2.078 1.19 1.193 1.72 3.095 1.72 6.17v11.169l-.276.083a34.45 34.45 0 0 1-2.806.673c-1.305.245-2.63.37-3.957.375h-.266a16.747 16.747 0 0 1-3.473-.341 7.33 7.33 0 0 1-2.694-1.113 5.15 5.15 0 0 1-1.72-1.975 6.646 6.646 0 0 1-.608-2.982 5.44 5.44 0 0 1 .752-2.95 5.8 5.8 0 0 1 1.943-1.911 8.78 8.78 0 0 1 2.685-1.035c.978-.21 1.975-.317 2.975-.318.718 0 1.524.038 2.394.113h.149v-.578c0-2.027-1.586-3.144-4.468-3.144a12.46 12.46 0 0 0-4.785.968v-4.37a16.078 16.078 0 0 1 5.252-.912Zm-33.115-7.095h.18a21.587 21.587 0 0 1 3.883.336 9.634 9.634 0 0 1 3.166 1.13 5.823 5.823 0 0 1 2.111 2.111c.512.875.772 1.987.772 3.311a6.696 6.696 0 0 1-.35 2.192 6.157 6.157 0 0 1-.934 1.764 5.807 5.807 0 0 1-1.335 1.246c-.442.31-.948.515-1.481.6v.272c.645.096 1.277.27 1.882.516.703.284 1.35.69 1.913 1.197a6.283 6.283 0 0 1 1.469 2.04c.403.91.61 1.893.609 2.887l-.002.135c0 1.595-.303 2.92-.89 3.931a6.675 6.675 0 0 1-2.447 2.412 10.514 10.514 0 0 1-3.56 1.224c-1.415.23-2.847.343-4.28.338-1.113 0-2.27-.033-3.412-.096a56.17 56.17 0 0 1-3.702-.342V15.463c.73-.11 1.55-.208 2.445-.27l.453-.031c.963-.06 2.141-.093 3.51-.095Zm122.181 0v19.59c-.01.636.034 1.272.131 1.9.064.415.216.812.445 1.164.197.28.479.49.804.596a3.75 3.75 0 0 0 1.168.158c.203.004.406-.006.607-.029.519 1.046 1.364 2.067 2.786 3.36l-1.586.313c-.732.142-1.404.269-1.56.286l-.014.002a18.39 18.39 0 0 1-1.555.075c-1.882 0-3.413-.525-4.548-1.557-1.134-1.032-1.702-2.75-1.702-5.104V15.067h5.024Zm54.996 7.818h.278c.188-.002.376.01.563.038l.594.094-.105 4.418a5.372 5.372 0 0 0-.787-.051h-.614a8.767 8.767 0 0 0-1.453.133 3.436 3.436 0 0 0-1.558.721 4.267 4.267 0 0 0-1.228 1.747c-.32.772-.483 1.851-.483 3.208v9.105l-5.061-.005V23.108l5.055.037v2.548l.249-.354c.498-.705.783-.92 1.466-1.444l.16-.12a4.695 4.695 0 0 1 2.924-.89Zm-153.08-.007h.281a3.5 3.5 0 0 1 .563.038l.596.094-.106 4.418a5.363 5.363 0 0 0-.788-.05h-.618a8.765 8.765 0 0 0-1.451.133 3.41 3.41 0 0 0-1.558.72 4.243 4.243 0 0 0-1.226 1.747c-.32.77-.482 1.851-.482 3.209v9.104l-5.066.002V23.108l5.081.037-.02 2.537.254-.356c.424-.599.69-.843 1.177-1.218l.445-.34a4.686 4.686 0 0 1 2.919-.89Zm71.57-8.16 1.54.327-.739 3.942-.725-.144a6.342 6.342 0 0 0-1.231-.096 3.637 3.637 0 0 0-2.225.647c-.625.47-.956 1.424-.956 2.76v.963h6.329a7.898 7.898 0 0 0-1.557 1.42 9.183 9.183 0 0 0-1.415 2.364h-3.357v15.363l-5.022-.009V26.892h-3.082V23.11h3.082v-1.08a8.773 8.773 0 0 1 .536-3.163 6.191 6.191 0 0 1 1.526-2.307 6.783 6.783 0 0 1 2.374-1.44 9.076 9.076 0 0 1 2.889-.496h.596c.481-.016.962.015 1.437.093Zm-40.411 7.938c2.151 0 3.793.592 4.877 1.76 1.083 1.168 1.637 3.048 1.637 5.578v12.261h-5.061v-10.83c0-1.369-.223-2.448-.639-3.189-.416-.74-1.208-1.16-2.28-1.16-.457.005-.91.07-1.349.194-.487.14-.93.405-1.284.768-.42.45-.732.988-.914 1.575a8.086 8.086 0 0 0-.347 2.6v10.042h-5.06V23.108h5.049v2.516l.251-.376c.063-.108.139-.208.225-.299l.128-.128a9.6 9.6 0 0 0 .172-.18 6.45 6.45 0 0 1 1.193-.993 6.6 6.6 0 0 1 1.53-.716 6.032 6.032 0 0 1 1.872-.276Zm50.296 3.896c-1.422 0-2.467.547-3.115 1.626-.647 1.08-.939 2.59-.939 4.561 0 1.972.316 3.505.939 4.56.623 1.054 1.685 1.626 3.115 1.626 1.431 0 2.505-.548 3.142-1.627.636-1.079.941-2.592.941-4.559 0-1.966-.3-3.497-.932-4.56-.632-1.064-1.693-1.627-3.151-1.627Zm-70.5 6.612c-1.251 0-2.255.223-2.984.668-.73.445-1.137 1.219-1.137 2.242 0 .681.149 1.215.445 1.587.273.358.635.637 1.05.812.37.155.76.255 1.16.298l.12.011c.444.04.829.058 1.156.058.386 0 .77-.032 1.15-.096l.36-.06.62-.109.113-.022v-5.18l-.116-.017c-.298-.052-.63-.096-.983-.134a9.169 9.169 0 0 0-.955-.058Zm100.092-6.052a4.693 4.693 0 0 0-1.558 1.396 5.967 5.967 0 0 0-.905 2.038 10.107 10.107 0 0 0-.286 2.243l-.001.175c-.02.9.11 1.799.385 2.657a4.52 4.52 0 0 0 1.067 1.764 4.04 4.04 0 0 0 1.614.952c.649.195 1.324.29 2.002.285.42 0 .817-.018 1.177-.053a6.97 6.97 0 0 0 1.032-.207l.245-.072V26.922l-.105-.024a10.183 10.183 0 0 0-1.237-.25c-.4-.042-.803-.061-1.205-.057a4.576 4.576 0 0 0-2.225.523Zm-63.47-.035a4.63 4.63 0 0 0-1.57 1.393 5.902 5.902 0 0 0-.903 2.038 10.203 10.203 0 0 0-.284 2.418c-.02.9.11 1.797.382 2.655a4.47 4.47 0 0 0 1.068 1.766 3.971 3.971 0 0 0 1.613.952 6.73 6.73 0 0 0 2.003.287c.423 0 .819-.02 1.179-.055a6.67 6.67 0 0 0 1.044-.206l.244-.072V26.886l-.102-.027a10.102 10.102 0 0 0-1.239-.25 10.265 10.265 0 0 0-1.21-.057 4.543 4.543 0 0 0-2.226.525Zm-70.323 3.235h-2.595v8.07l.118.018c.356.049.772.086 1.233.113.46.027.865.036 1.268.036a9.824 9.824 0 0 0 1.675-.152 5.083 5.083 0 0 0 1.66-.6 3.686 3.686 0 0 0 1.288-1.246c.364-.632.54-1.354.51-2.083a4.59 4.59 0 0 0-.387-2.002 3.272 3.272 0 0 0-1.113-1.295 4.597 4.597 0 0 0-1.704-.668 10.94 10.94 0 0 0-1.953-.191Zm155.136-3.874c-1.288 0-2.283.37-2.954 1.097-.672.728-1.075 1.745-1.204 3.048l-.013.152h7.882v-.143c-.051-1.226-.396-2.225-1.027-2.994-.632-.77-1.542-1.16-2.684-1.16Zm-157.6-7.473-.115.018v7.466h1.786a8.754 8.754 0 0 0 1.78-.169 3.803 3.803 0 0 0 1.46-.625c.429-.314.768-.734.985-1.219.254-.607.373-1.26.352-1.918a3.748 3.748 0 0 0-.414-1.851 3.192 3.192 0 0 0-1.07-1.14 3.891 3.891 0 0 0-1.44-.542 9.06 9.06 0 0 0-1.544-.134 11.8 11.8 0 0 0-1.78.114Z"/><path fill="#39C5EB" d="M13.01 10.272h27.033v4.559h-2.756l5.29 5.29 5.287-5.29h-2.761V5.213H7.95V51.3h37.152v-5.06H13.01V10.272Z"/></svg>
